X: 29
T:Avant-Deux du PETIT AUVERNE
M:4/4
L:1/8
Q:1/4=120
Z:YVES BELOTTEAU
Z:Yves BELOTTEAU
K:G
|GF/2G/2AG FEDD|EEFF D3/2 z/2 G3/2 z/2 |GF/2G/2AG FEDD|EEFF D3/2 z/2 G3/
2 z/2 |
BA/2B/2c3/2 z/2 cB/2A/2d3/2 z/2 |DEFD G3/2 z/2 G3/2 z/2 |BA/2B/2c3/2 z/2
 cB/2A/2dd|eedc B3/2 z/2 A3/2 z/2 |
BA/2B/2c3/2 z/2 cB/2A/2dd|eeff d3/2 z/2 g3/2|
W:
W: From "Falaleiro" http://home.t-online.de/home/pheld/homepage.htm
